svg/icon/qash.svg

<svg xmlns="http://www.w3.org/2000/svg" xmlns:xlink="http://www.w3.org/1999/xlink" width="32" height="32" viewBox="0 0 32 32">
  <defs>
    <linearGradient id="qash-c" x1="50%" x2="50%" y1="0%" y2="100%">
      <stop offset="0%" stop-color="#FFF" stop-opacity=".5"/>
      <stop offset="100%" stop-opacity=".5"/>
    </linearGradient>
    <circle id="qash-b" cx="16" cy="15" r="15"/>
    <filter id="qash-a" width="111.7%" height="111.7%" x="-5.8%" y="-4.2%" filterUnits="objectBoundingBox">
      <feOffset dy=".5" in="SourceAlpha" result="shadowOffsetOuter1"/>
      <feGaussianBlur in="shadowOffsetOuter1" result="shadowBlurOuter1" stdDeviation=".5"/>
      <feComposite in="shadowBlurOuter1" in2="SourceAlpha" operator="out" result="shadowBlurOuter1"/>
      <feColorMatrix in="shadowBlurOuter1" values="0 0 0 0 0   0 0 0 0 0   0 0 0 0 0  0 0 0 0.199473505 0"/>
    </filter>
    <path id="qash-e" d="M16,4 C9.92492,4 5,8.92492 5,15 C5,21.07508 9.92492,26 16,26 C22.07508,26 27,21.07519 27,15 C27,8.92481 22.07519,4 16,4 Z M26.44065,14.55032 L25.54965,14.55901 L25.54602,14.18611 L26.43702,14.17753 L26.44065,14.55032 Z M26.21174,12.62719 L25.32921,12.74962 L25.27795,12.38035 L26.16037,12.25792 L26.21174,12.62719 Z M25.45175,10.2854 L25.60575,10.62486 L24.79483,10.99347 L24.64083,10.65412 L25.45175,10.2854 Z M24.34075,8.58953 L24.58682,8.8697 L23.91758,9.45765 L23.67151,9.17748 L24.34075,8.58953 Z M23.03571,7.19726 L23.31797,7.44058 L22.73662,8.11532 L22.45425,7.872 L23.03571,7.19726 Z M21.48053,5.93831 L21.79337,6.14126 L21.30838,6.88849 L20.99576,6.68554 L21.48053,5.93831 Z M19.71184,5.06513 L20.07231,5.15995 L19.8456,6.02136 L19.48502,5.92643 L19.71184,5.06513 Z M17.76572,4.58674 L18.1373,4.61776 L18.06305,5.50546 L17.69158,5.474 L17.76572,4.58674 Z M15.75151,4.352 L16.1243,4.352 L16.1243,5.243 L15.75151,5.243 L15.75151,4.352 Z M14.09788,4.58674 L14.17202,5.47444 L13.8,5.50557 L13.72586,4.61787 L14.09788,4.58674 Z M12.15176,5.06513 L12.37847,5.92643 L12.018,6.02147 L11.79129,5.16006 L12.15176,5.06513 Z M10.38296,5.93831 L10.86773,6.68554 L10.555,6.88849 L10.07012,6.14126 L10.38296,5.93831 Z M8.828,7.19726 L9.40946,7.872 L9.12709,8.11532 L8.54563,7.44058 L8.828,7.19726 Z M7.52296,8.58942 L8.19209,9.17748 L7.94602,9.45765 L7.277,8.8697 L7.52296,8.58942 Z M6.41196,10.28529 L7.22277,10.65401 L7.06877,10.99336 L6.25785,10.62475 L6.41196,10.28529 Z M5.70323,12.25781 L6.58554,12.38024 L6.53428,12.74951 L5.65197,12.62719 L5.70323,12.25781 Z M5.42658,14.17753 L6.31758,14.18611 L6.31406,14.55901 L5.42306,14.55032 L5.42658,14.17753 Z M5.50864,16.26995 L6.3948,16.17997 L6.43242,16.55089 L5.54626,16.64087 L5.50864,16.26995 Z M5.91234,18.16404 L6.7798,17.96153 L6.86461,18.32453 L5.99715,18.52715 L5.91234,18.16404 Z M6.8832,20.42674 L6.69862,20.10279 L7.47247,19.66136 L7.65705,19.98542 L6.8832,20.42674 Z M8.14457,22.01382 L7.87397,21.75763 L8.48667,21.11072 L8.75738,21.36724 L8.14457,22.01382 Z M9.57127,23.28102 L9.268,23.06454 L9.785,22.33942 L10.08849,22.55612 L9.57127,23.28102 Z M11.2348,24.39202 L10.9048,24.21888 L11.31939,23.43051 L11.64939,23.60387 L11.2348,24.39202 Z M13.07609,25.09998 L12.70847,25.03849 L12.85543,24.16003 L13.22316,24.22152 L13.07609,25.09998 Z M14.68495,25.4016 L14.67769,24.5106 L15.05059,24.50741 L15.05785,25.39841 L14.68495,25.4016 Z M6.7402,15 C6.7402,9.89402 10.89402,5.7402 16,5.7402 C21.10598,5.7402 25.2598,9.89402 25.2598,15 C25.2598,20.10598 21.10587,24.2598 16,24.2598 C10.89413,24.2598 6.7402,20.10587 6.7402,15 Z M16.726,25.48146 L16.71401,25.48245 L16.63261,24.59552 L17.00397,24.56153 L17.01607,24.56043 L17.09747,25.44747 L16.726,25.48146 Z M18.71062,25.06346 L18.55563,24.18621 L18.9227,24.12131 L19.07769,24.99856 L18.71062,25.06346 Z M20.60482,24.40929 L20.30034,23.57208 L20.65069,23.44459 L20.95495,24.2818 L20.60482,24.40929 Z M22.28639,23.37815 L21.73529,22.67833 L22.02811,22.44733 L22.57943,23.14715 L22.28639,23.37815 Z M23.71991,21.98225 L23.07916,21.36361 L23.33821,21.09543 L23.97885,21.71418 L23.71991,21.98225 Z M24.89207,20.47668 L24.1719,19.95231 L24.39135,19.65102 L25.11163,20.17539 L24.89207,20.47668 Z M25.84357,18.68643 L25.00229,18.3935 L25.12494,18.0415 L25.96622,18.33465 L25.84357,18.68643 Z M26.36904,16.65748 L25.47925,16.61612 L25.49641,16.24388 L26.38631,16.28502 L26.36904,16.65748 Z M19.53562,19.73198 L19.53463,19.73231 C19.6839,19.89291 19.68808,20.13579 19.5409,20.28121 C19.39372,20.42663 19.15095,20.4197 18.992,20.26834 L18.992,20.269 L18.71447,19.98817 L18.08186,19.34797 C17.67794,19.54421 17.22716,19.6321 16.76593,19.61527 L15.02793,19.61527 C13.45394,19.67269 12.00007,18.8874 12.11722,16.33144 C12.12195,16.2243 12.11095,14.84787 12.11095,14.7393 C12.11095,14.63073 12.11447,13.81365 12.11447,13.70673 C12.11084,11.15704 12.73377,10.00061 14.45241,9.59152 C14.64678,9.54521 15.70982,9.52112 15.9131,9.52112 L16.00429,9.52112 C16.20779,9.52112 17.14631,9.54521 17.34079,9.59152 C19.05932,10.00105 19.68236,11.15737 19.67884,13.70728 C19.67873,13.8142 19.68236,14.63073 19.68236,14.73985 C19.68236,14.84897 19.67103,16.22441 19.67609,16.33199 C19.74,17.7126 19.34433,18.31199 18.71909,18.90599 L19.25809,19.45126 L19.53562,19.73198 Z M16.87725,18.80413 C17.0755694,18.8047177 17.2729082,18.7762935 17.463,18.71976 L17.1066,18.35918 L16.82907,18.07835 C16.6798,17.91797 16.67562,17.67509 16.8228,17.52967 C16.96998,17.38425 17.21297,17.39118 17.3717,17.54221 L17.64934,17.82293 L18.14797,18.32761 C18.17272,18.30451 18.19747,18.28053 18.22156,18.25545 C18.68774,17.76705 18.91016,17.35873 18.86484,16.36873 C18.86165,16.29987 18.86132,16.29756 18.86847,15.05621 C18.86957,14.88791 18.87023,14.76647 18.87023,14.73941 C18.87023,14.69123 18.86946,14.3807 18.86869,14.04113 C18.86759,13.61499 18.8666,13.76536 18.8666,13.70563 C18.86825,12.57582 18.74043,11.59429 18.46543,11.15055 C18.3023,10.88743 18.02026,10.59098 17.16666,10.38528 C16.99847,10.35987 16.26268,10.33369 16.00528,10.33369 L15.91343,10.33369 C15.65592,10.33369 14.79605,10.35987 14.62775,10.38528 C13.77415,10.59098 13.49211,10.88743 13.32898,11.15055 C13.05376,11.59429 12.92616,12.57593 12.92781,13.70563 C12.92781,13.76536 12.9266,13.61499 12.92572,14.04113 C12.92484,14.38059 12.92418,14.69123 12.92418,14.73941 C12.92418,14.76636 12.92484,14.88791 12.92583,15.05621 C12.93287,16.29756 12.93265,16.29987 12.92946,16.36873 C12.88403,17.35862 13.10656,17.76738 13.57285,18.25545 C14.00603,18.70887 14.54261,18.80413 14.91661,18.80413 C14.94356,18.80413 14.97095,18.80358 14.99801,18.80259 L15.01286,18.80193 L16.781,18.80193 L16.79585,18.80259 C16.82313,18.80413 16.85019,18.80413 16.87725,18.80413 Z"/>
    <filter id="qash-d" width="115.9%" height="115.9%" x="-8%" y="-5.7%" filterUnits="objectBoundingBox">
      <feOffset dy=".5" in="SourceAlpha" result="shadowOffsetOuter1"/>
      <feGaussianBlur in="shadowOffsetOuter1" result="shadowBlurOuter1" stdDeviation=".5"/>
      <feColorMatrix in="shadowBlurOuter1" values="0 0 0 0 0   0 0 0 0 0   0 0 0 0 0  0 0 0 0.204257246 0"/>
    </filter>
  </defs>
  <g fill="none">
    <use fill="#000" filter="url(#qash-a)" xlink:href="#qash-b"/>
    <use fill="#1347E8" fill-rule="evenodd" xlink:href="#qash-b"/>
    <use fill="url(#qash-c)" fill-rule="evenodd" style="mix-blend-mode:soft-light" xlink:href="#qash-b"/>
    <circle cx="16" cy="15" r="14.5" stroke="#000" stroke-opacity=".097"/>
    <g>
      <use fill="#000" filter="url(#qash-d)" xlink:href="#qash-e"/>
      <use fill="#FFF" fill-rule="evenodd" xlink:href="#qash-e"/>
    </g>
  </g>
</svg>

<svg xmlns="http://www.w3.org/2000/svg" xmlns:xlink="http://www.w3.org/1999/xlink" width="32" height="32"><defs><linearGradient id="c" x1="50%" x2="50%" y1="0%" y2="100%"><stop offset="0%" stop-color="#FFF" stop-opacity=".5"/><stop offset="100%" stop-opacity=".5"/></linearGradient><circle id="b" cx="16" cy="15" r="15"/><filter id="a" width="111.7%" height="111.7%" x="-5.8%" y="-4.2%" filterUnits="objectBoundingBox"><feOffset dy=".5" in="SourceAlpha" result="shadowOffsetOuter1"/><feGaussianBlur in="shadowOffsetOuter1" result="shadowBlurOuter1" stdDeviation=".5"/><feComposite in="shadowBlurOuter1" in2="SourceAlpha" operator="out" result="shadowBlurOuter1"/><feColorMatrix in="shadowBlurOuter1" values="0 0 0 0 0 0 0 0 0 0 0 0 0 0 0 0 0 0 0.199473505 0"/></filter><path id="e" d="M16 4C9.925 4 5 8.925 5 15s4.925 11 11 11 11-4.925 11-11S22.075 4 16 4zm10.44 10.55l-.89.009-.004-.373.891-.008.004.372zm-.228-1.923l-.883.123-.051-.37.882-.122.052.37zm-.76-2.342l.154.34-.811.368-.154-.339.81-.369zM24.34 8.59l.246.28-.67.588-.245-.28.669-.588zm-1.305-1.393l.282.244-.581.674-.283-.243.582-.675zM21.48 5.938l.312.203-.485.747-.312-.202.485-.748zm-1.77-.873l.361.095-.226.861-.361-.095.227-.86zm-1.945-.478l.371.03-.074.888-.371-.031.074-.887zm-2.014-.235h.372v.891h-.372v-.891zm-1.654.235l.074.887-.372.032-.074-.888.372-.031zm-1.946.478l.226.861-.36.095-.227-.86.36-.096zm-1.769.873l.485.748-.313.202-.485-.747.313-.203zm-1.555 1.26l.581.674-.282.243-.581-.674.282-.244zM7.523 8.588l.67.588-.247.28-.669-.587.246-.28zm-1.111 1.696l.81.369-.153.34-.811-.37.154-.339zm-.709 1.973l.883.122-.052.37-.882-.123.051-.37zm-.276 1.92l.89.008-.003.373-.89-.009.003-.372zm.082 2.092l.886-.09.037.37-.886.09-.037-.37zm.403 1.894l.868-.202.085.363-.868.202-.085-.363zm.971 2.263l-.184-.324.773-.442.185.324-.774.442zm1.262 1.587l-.271-.256.613-.647.27.256-.612.647zM9.57 23.28l-.303-.216.517-.726.303.217-.517.725zm1.664 1.111l-.33-.173.414-.788.33.173-.414.788zm1.841.708l-.368-.062.147-.878.368.062-.147.878zm1.609.302l-.007-.891.373-.004.007.891-.373.004zM6.74 15c0-5.106 4.154-9.26 9.26-9.26s9.26 4.154 9.26 9.26-4.154 9.26-9.26 9.26S6.74 20.106 6.74 15zm9.986 10.481l-.012.001-.081-.886.371-.034.012-.002.081.887-.371.034zm1.985-.418l-.155-.877.367-.065.155.878-.367.064zm1.894-.654l-.305-.837.35-.127.305.837-.35.127zm1.681-1.03l-.55-.7.292-.232.551.7-.293.231zm1.434-1.397l-.64-.618.258-.269.64.62-.258.267zm1.172-1.505l-.72-.525.22-.301.72.524-.22.302zm.952-1.79l-.842-.294.123-.352.841.294-.122.351zm.525-2.03l-.89-.04.017-.373.89.041-.017.372zm-6.833 3.075h-.001c.149.16.153.404.006.55-.147.145-.39.138-.549-.014v.001l-.278-.28-.632-.641a2.77 2.77 0 0 1-1.316.267h-1.738c-1.574.058-3.028-.728-2.91-3.284.004-.107-.007-1.483-.007-1.592l.003-1.032c-.003-2.55.62-3.706 2.338-4.115.195-.047 1.258-.07 1.461-.07h.091c.204 0 1.142.023 1.337.07 1.718.409 2.341 1.565 2.338 4.115l.003 1.033c0 .109-.011 1.484-.006 1.592.064 1.38-.332 1.98-.957 2.574l.54.545.277.281zm-2.659-.928c.199 0 .396-.028.586-.084l-.356-.36-.278-.282c-.15-.16-.153-.403-.006-.548.147-.146.39-.139.549.012l.277.28.499.506c.025-.023.05-.047.074-.073.466-.488.688-.896.643-1.886-.003-.07-.004-.071.003-1.313l.002-.317-.001-.698c-.001-.426-.002-.276-.002-.335.001-1.13-.127-2.112-.402-2.555-.163-.264-.445-.56-1.298-.766a15.308 15.308 0 0 0-1.162-.051h-.092c-.257 0-1.117.026-1.285.051-.854.206-1.136.502-1.299.766-.275.443-.403 1.425-.401 2.555 0 .06-.001-.091-.002.335a617.092 617.092 0 0 0 0 1.015c.007 1.242.007 1.244.003 1.313-.045.99.178 1.398.644 1.886.433.454.97.55 1.344.55l.081-.002.015-.001h1.783c.027.002.054.002.081.002z"/><filter id="d" width="115.9%" height="115.9%" x="-8%" y="-5.7%" filterUnits="objectBoundingBox"><feOffset dy=".5" in="SourceAlpha" result="shadowOffsetOuter1"/><feGaussianBlur in="shadowOffsetOuter1" result="shadowBlurOuter1" stdDeviation=".5"/><feColorMatrix in="shadowBlurOuter1" values="0 0 0 0 0 0 0 0 0 0 0 0 0 0 0 0 0 0 0.204257246 0"/></filter></defs><g fill="none"><use fill="#000" filter="url(#a)" xlink:href="#b"/><use fill="#1347E8" fill-rule="evenodd" xlink:href="#b"/><use fill="url(#c)" fill-rule="evenodd" style="mix-blend-mode:soft-light" xlink:href="#b"/><circle cx="16" cy="15" r="14.5" stroke="#000" stroke-opacity=".097"/><use fill="#000" filter="url(#d)" xlink:href="#e"/><use fill="#FFF" fill-rule="evenodd" xlink:href="#e"/></g></svg>
